X:18031
T:untitled
C:Rick Gagne, 1997
N:IrTrad, 6/99
R:polka
M:2/4
L:1/8
K:D
a>g fa|gf a2|ce Ae|ce g2|a>g fa|gf ed|c/d/e Ac|1 dA df:||2 d2 df||
ea ag|fg e2|fd de/f/|gf ed|ea ag|fg eg|f/g/a ge|1 dA Df:||2 dA df||
